X: 16
M: 6/8
L: 1/8
P: Rondeau
K: D
V: 1
!segno!A AAA |\
gee ege | fdd dfd | efg Tc2B | B2 !segno!|] [M:3/4]
"Minuet"\
f2 ffff | f2 e2 d2 | e2 d2 e2 | A6 | d2 dddd | e2 d2 a2 | f2 d2 g2 | {f2}e6 |
f2 ffff | f2 e2 d2 | e2 d2 e2 | A6 | d2 dddd | e2 d2 a2 | f2 g2 e2 | d6 |]
V: 2 clef=bass middle=d
!segno!z d'3 |\
d3 f3 | a3 c'2a | d'3 b3 | a3 c'2a | d'3 d3 |
a3 c'2a | d'3 a3 | d2 :| d f2d | g3 G3 | d3 f3 | e3 c3 |
d2d f2d | g3 G3 | d3 f3 | b3 g2^g | "_Da Capo"a2 |] z d3 | B3 b3 |
^a3 f3 | b3 B3 | f3 ^d3 | e3 c3 | d3 B3 | e3 f3 | B2 !segno!|] [M:3/4]
"Minuet"\
d2 f2 d2 | a2 g2 f2 | g2 f2 g2 | A2 agfe | d2 f2 d2 | g2 f2 c2 | d2 B2 G2 | A2 agfe |
d2 f2 d2 | a2 g2 f2 | g2 f2 g2 | A2 agfe | d2 f2 d2 | g2 f2 c2 | d2 G2 A2 | D6 |]


